X: 28191
T: Mrs. Anderson's Wedding
R: waltz
M: 3/4
K: Gmajor
|:G Bc|d2 d^c de|d2 gf ed|B2 B^A Bc|B2 GB cB|
A2 A^G AB|c2 A2 F2|G2 GF GE|D2 DG Bc|
d2 d^c de|d2 gf ed|B2 B^A Bc|B2 DG BD|
A2 A^G AB|c/d/c A2 F2|G2 GB dB|G3:|
|:G Bd|e2 e^d e=d|c2 d2 e2|d2 d^c d=c|B2 DG, B,D|
A2 A^G AB|c2 A2 F2|G2 GF GE|DG, DG Bd|
e2 e^d e=d|c2 d2 e2|d2 d^c d=c|B2 DG, B,D|
A2 A^G AB|c/d/c A2 F2|G2 GB dB|G3:|

